X: 14754
T: Gan Ainm
R: reel
M: 4/4
K: Ddorian
D2 AD (3EFG AB|c2 dB cAGE|D2 AD (3EFG AB|cAGE EDDD|
D2 AD (3EFG AB|c2 dB cAGE|D2 AD (3EFG AB|cAGE EDDA||
d3d dcAA|(3Bcd ed cAGc|Adde dcAB|cAGE EDDA|
d3d dcAA|(3Bcd ed cAGc|Adde fded|cAGE EDDD||

